X: 6
T: Katselin taivaan t\"ahti\"a
O: Trad Finland
Z: John Chambers <jc@trillian.mit.edu>
M: C|
L: 1/8
K: Gm
z \
| "Gm"d2gg g2fg \
| "F"a2a2 f2f2 \
| "Cm"eeed e2c2 \
| "D7"d2 d2z :|
|: d \
| "Cm"e2ed "(f)"c2cB \
| "Gm(Bb)"d2dc y "(Eb)"B2BA \
| "Cm"cccB "D7"d2B2 \
| "Gm"G4 G2z :|
